src/assets/icons/weeks,fancy,37.svg

<svg width="48" height="48" viewBox="0 0 48 48" fill="none" xmlns="http://www.w3.org/2000/svg">
<rect opacity="0.2" x="4" y="6" width="40" height="40" rx="4" fill="black"/>
<path d="M15.6229 41.2784C20.1967 41.2784 23.468 38.7628 23.4581 35.2827C23.468 32.7472 21.8572 30.9375 18.8643 30.5597V30.4006C21.1413 29.9929 22.7124 28.3821 22.7024 26.0952C22.7124 22.8835 19.8984 20.358 15.6825 20.358C11.5064 20.358 8.36435 22.804 8.30469 26.3239H12.4311C12.4808 24.7727 13.9027 23.7685 15.6626 23.7685C17.4027 23.7685 18.5661 24.8224 18.5561 26.3537C18.5661 27.9545 17.2038 29.0384 15.245 29.0384H13.3459V32.2003H15.245C17.5518 32.2003 18.9936 33.3537 18.9837 34.9943C18.9936 36.6151 17.6016 37.7287 15.6328 37.7287C13.7337 37.7287 12.3118 36.7344 12.2322 35.2429H7.89702C7.96662 38.8026 11.1484 41.2784 15.6229 41.2784ZM27.3583 41H31.8029L40.2546 24.206V20.6364H25.9663V24.1562H35.8001V24.2955L27.3583 41Z" fill="black"/>
<g opacity="0.4">
<path d="M10 4C10 2.89543 10.8954 2 12 2C13.1046 2 14 2.89543 14 4V8C14 9.10457 13.1046 10 12 10C10.8954 10 10 9.10457 10 8V4Z" fill="black"/>
<path d="M34 4C34 2.89543 34.8954 2 36 2C37.1046 2 38 2.89543 38 4V8C38 9.10457 37.1046 10 36 10C34.8954 10 34 9.10457 34 8V4Z" fill="black"/>
</g>
<path fill-rule="evenodd" clip-rule="evenodd" d="M10 6.00869C7.52043 6.04456 6.11466 6.22849 5.17157 7.17157C4 8.34315 4 10.2288 4 14V16H44V14C44 10.2288 44 8.34315 42.8284 7.17157C41.8853 6.22849 40.4796 6.04456 38 6.00869V8C38 9.10457 37.1046 10 36 10C34.8954 10 34 9.10457 34 8V6H14V8C14 9.10457 13.1046 10 12 10C10.8954 10 10 9.10457 10 8V6.00869Z" fill="black"/>
</svg>

<svg xmlns="http://www.w3.org/2000/svg" width="48" height="48" fill="none" viewBox="0 0 48 48">
  <rect width="40" height="40" x="4" y="6" fill="#000" opacity=".2" rx="4"/>
  <path fill="#000" d="M15.623 41.278c4.574 0 7.845-2.515 7.835-5.995.01-2.536-1.6-4.346-4.594-4.723v-.16c2.277-.407 3.848-2.018 3.838-4.305.01-3.211-2.804-5.737-7.02-5.737-4.176 0-7.318 2.446-7.377 5.966h4.126c.05-1.551 1.472-2.556 3.232-2.556 1.74 0 2.903 1.054 2.893 2.586.01 1.6-1.352 2.684-3.311 2.684h-1.9V32.2h1.9c2.307 0 3.749 1.154 3.739 2.794.01 1.621-1.382 2.735-3.351 2.735-1.9 0-3.321-.995-3.4-2.486H7.896c.07 3.56 3.251 6.035 7.726 6.035zM27.358 41h4.445l8.452-16.794v-3.57H25.966v3.52H35.8v.14L27.358 41z"/>
  <g opacity=".4">
    <path fill="#000" d="M10 4a2 2 0 114 0v4a2 2 0 11-4 0V4zM34 4a2 2 0 114 0v4a2 2 0 11-4 0V4z"/>
  </g>
  <path fill="#000" fill-rule="evenodd" d="M10 6.009c-2.48.036-3.885.22-4.828 1.163C4 8.343 4 10.229 4 14v2h40v-2c0-3.771 0-5.657-1.172-6.828-.943-.944-2.348-1.127-4.828-1.163V8a2 2 0 11-4 0V6H14v2a2 2 0 11-4 0V6.009z" clip-rule="evenodd"/>
</svg>
